src/icons/add-group.svg

<?xml version="1.0" encoding="UTF-8"?>
<svg xmlns="http://www.w3.org/2000/svg" xmlns:xlink="http://www.w3.org/1999/xlink" width="32" height="32" viewBox="0 0 32 32" version="1.1">
<g id="surface1">
<path style=" stroke:none;fill-rule:nonzero;fill:rgb(0%,0%,0%);fill-opacity:1;" d="M 12.960938 1.28125 C 10.757812 1.28125 9.117188 1.914062 8.136719 3.226562 C 6.9375 4.824219 6.734375 7.324219 7.46875 10.644531 C 7.1875 10.992188 6.984375 11.527344 7.066406 12.226562 C 7.234375 13.613281 7.765625 14.183594 8.21875 14.414062 C 8.429688 15.488281 9.019531 16.683594 9.59375 17.265625 C 9.59375 17.265625 9.601562 18.878906 9.519531 19.601562 C 9.136719 20.484375 7.882812 20.859375 6.40625 21.445312 C 3.9375 22.433594 0.871094 23.652344 0.640625 27.480469 L 0.601562 28.160156 L 19.738281 28.160156 C 20.730469 30.414062 22.988281 32 25.601562 32 C 29.121094 32 32 29.121094 32 25.601562 C 32 22.394531 29.613281 19.71875 26.527344 19.269531 C 26.527344 19.269531 26.507812 19.265625 26.503906 19.257812 C 25.476562 18.804688 24.027344 17.699219 23.761719 17.199219 C 23.679688 16.640625 23.6875 15.277344 23.6875 15.277344 C 24.21875 14.789062 24.933594 13.792969 25.183594 12.773438 C 25.601562 12.550781 26.074219 12.019531 26.222656 10.765625 C 26.296875 10.132812 26.117188 9.640625 25.863281 9.3125 C 26.183594 7.890625 26.625 5.171875 25.535156 3.570312 C 25.089844 2.914062 24.4375 2.503906 23.605469 2.328125 C 23.054688 1.652344 22.023438 1.28125 20.660156 1.28125 C 19.648438 1.28125 18.796875 1.453125 18.066406 1.804688 C 18.617188 2.136719 19.089844 2.585938 19.460938 3.128906 C 20.574219 4.75 20.800781 7.128906 20.140625 10.386719 C 20.4375 10.976562 20.550781 11.65625 20.46875 12.371094 C 20.289062 13.855469 19.738281 14.703125 19.175781 15.179688 C 18.90625 16.140625 18.4375 17.121094 17.921875 17.8125 C 17.921875 18.277344 17.917969 18.6875 17.945312 19.148438 C 18.289062 19.519531 19.4375 19.96875 20.296875 20.308594 C 20.648438 20.441406 21.425781 20.761719 21.425781 20.761719 C 21.078125 21.058594 20.765625 21.394531 20.492188 21.761719 C 20.269531 21.671875 20.050781 21.582031 19.832031 21.496094 C 18.355469 20.921875 17.105469 20.476562 16.71875 19.601562 C 16.640625 18.878906 16.644531 17.335938 16.644531 17.335938 C 17.222656 16.75 17.824219 15.496094 18.042969 14.40625 C 18.496094 14.175781 19.027344 13.605469 19.195312 12.21875 C 19.277344 11.511719 19.066406 10.976562 18.785156 10.628906 C 19.117188 9.132812 19.742188 5.804688 18.40625 3.851562 C 18.035156 3.308594 17.507812 2.886719 16.894531 2.644531 C 16.671875 2.5625 16.449219 2.496094 16.21875 2.4375 C 15.621094 1.691406 14.484375 1.28125 12.960938 1.28125 M 25.601562 20.480469 C 28.414062 20.480469 30.71875 22.785156 30.71875 25.601562 C 30.71875 28.414062 28.414062 30.71875 25.601562 30.71875 C 22.785156 30.71875 20.480469 28.414062 20.480469 25.601562 C 20.480469 22.785156 22.785156 20.480469 25.601562 20.480469 M 25.601562 21.761719 C 25.214844 21.761719 24.960938 22.015625 24.960938 22.335938 L 24.960938 24.960938 L 22.398438 24.960938 C 22.226562 24.953125 22.0625 25.015625 21.9375 25.136719 C 21.878906 25.191406 21.835938 25.257812 21.804688 25.335938 C 21.777344 25.421875 21.761719 25.511719 21.761719 25.601562 C 21.761719 25.792969 21.824219 25.953125 21.9375 26.0625 C 21.992188 26.121094 22.0625 26.164062 22.136719 26.195312 C 22.222656 26.222656 22.308594 26.238281 22.398438 26.238281 L 24.960938 26.238281 L 24.960938 28.800781 C 24.960938 29.183594 25.214844 29.441406 25.601562 29.441406 C 25.984375 29.441406 26.238281 29.183594 26.238281 28.800781 L 26.238281 26.238281 L 28.800781 26.238281 C 29.183594 26.238281 29.441406 25.984375 29.441406 25.601562 C 29.441406 25.214844 29.183594 24.960938 28.863281 24.960938 L 26.238281 24.960938 L 26.238281 22.398438 C 26.238281 22.015625 25.984375 21.761719 25.601562 21.761719 M 25.601562 21.761719 "/>
</g>
</svg>

<svg role="img" viewBox="0 0 32 32" xmlns="http://www.w3.org/2000/svg"><path d="M12.96 1.281c-2.202 0-3.843.633-4.823 1.946-1.2 1.597-1.403 4.097-.668 7.418-.282.347-.485.882-.403 1.582.168 1.386.7 1.957 1.153 2.187.21 1.074.8 2.27 1.375 2.852 0 0 .008 1.613-.074 2.336-.383.882-1.637 1.257-3.114 1.843-2.468.989-5.535 2.207-5.765 6.035l-.04.68h19.137c.992 2.254 3.25 3.84 5.864 3.84C29.122 32 32 29.121 32 25.602c0-3.207-2.387-5.883-5.473-6.332 0 0-.02-.004-.023-.012-1.027-.453-2.477-1.559-2.742-2.059-.082-.558-.075-1.922-.075-1.922.532-.488 1.247-1.484 1.497-2.504.418-.222.89-.753 1.039-2.007.074-.633-.106-1.125-.36-1.453.32-1.422.762-4.141-.328-5.743-.445-.656-1.098-1.066-1.93-1.242-.55-.676-1.582-1.047-2.945-1.047-1.012 0-1.863.172-2.594.524.551.332 1.024.78 1.395 1.324 1.113 1.621 1.34 4 .68 7.258.297.59.41 1.27.328 1.984-.18 1.484-.73 2.332-1.293 2.809-.27.96-.738 1.941-1.254 2.633 0 .464-.004.875.023 1.335.344.372 1.492.82 2.352 1.16.351.133 1.129.454 1.129.454a6.308 6.308 0 0 0-.934 1c-.222-.09-.441-.18-.66-.266-1.477-.574-2.727-1.02-3.113-1.894-.078-.723-.074-2.266-.074-2.266.578-.586 1.18-1.84 1.398-2.93.453-.23.984-.8 1.152-2.187.082-.707-.129-1.242-.41-1.59.332-1.496.957-4.824-.379-6.777a3.298 3.298 0 0 0-1.511-1.207 6.829 6.829 0 0 0-.676-.208c-.598-.746-1.735-1.156-3.258-1.156m12.642 19.2c2.812 0 5.117 2.304 5.117 5.12 0 2.813-2.305 5.118-5.117 5.118-2.817 0-5.122-2.305-5.122-5.117 0-2.817 2.305-5.122 5.122-5.122m0 1.28c-.387 0-.641.255-.641.575v2.625h-2.563a.624.624 0 0 0-.46.176.541.541 0 0 0-.133.199.806.806 0 0 0-.043.266c0 .191.062.351.175.46a.541.541 0 0 0 .2.133.8.8 0 0 0 .261.043h2.563V28.8c0 .383.254.64.64.64.383 0 .637-.257.637-.64v-2.563h2.563c.383 0 .64-.254.64-.636 0-.387-.257-.641-.578-.641h-2.625v-2.563c0-.382-.254-.636-.636-.636m0 0" style="stroke:none;fill-rule:nonzero;fill:rgb(0%,0%,0%);fill-opacity:1"/></svg>
